!!!COM: Scriabin, Alexander
!!!OTL@@FR: Étude
!!!OTL@@EN: Etude
!!!OPR@@FR: 12 Études
!!!OPR@@EN: 12 Etudes
!!!OPS: 8
!!!ONM: 11
!!!ODT: 1894
!!!AGN: Etude
**kern	**kern	**dynam
*staff2	*staff1	*staff1/2
*Ipiano	*Ipiano	*
*clefF4	*clefG2	*
*k[b-e-a-d-g-]	*k[b-e-a-d-g-]	*
*b-:	*b-:	*
*M3/4	*M3/4	*
=1	=1	=1
*^	*	*
.	[8qBB-\	.	.
*	*	*^	*
8FL 8f	2BB-]	8.dd-L	8d-L 8b-	.
8FJ 8f	.	.	8d-J 8b-	.
.	.	16dd-Jk	.	.
8FL 8f	.	4dd-	8d-L 8b-	.
8FJ 8f	.	.	8d-J 8b-	.
.	[8qBB-\	.	.	.
8G-L 8g-	4BB-]	16ffLL	8e-L 8b-	.
.	.	16dd-	.	.
8G-J 8g-	.	24ff	8e-J 8b-	.
.	.	24ee-	.	.
.	.	24b-JJ	.	.
=2	=2	=2	=2	=2
.	[8qBB-\	.	.	.
8FL 8f	2.BB-]	[8b-L	8d-L 8b-	.
8FJ 8f	.	24b-L]	8d-J 8b-	.
.	.	24bn	.	.
.	.	24ccJJ	.	.
8FL 8f	.	16ee-LL	8d-L 8b-X	.
.	.	[16dd-J	.	.
8FJ 8f	.	8dd-J_	8d-J 8b-	.
8FL 8f	.	4dd-]	8d-L 8b-	.
8FJ 8f	.	.	8d-J 8b-	.
=3	=3	=3	=3	=3
8G-L 8g-	2BB-	16e-KL 16ee-	8b-L	.
.	.	8dn 8ddn	.	.
8G-J 8g-	.	.	8dJ 8b-	.
.	.	16dJk 16dd	.	.
8G-L 8g-	.	16dKL 16dd	8b-L	.
.	.	8d-X 8dd-X	.	.
8G-J 8g-	.	.	8d-J 8b-	.
.	.	16d-Jk 16dd-	.	.
8G-L 8e-	4BB-	16d-KL 16dd-	8g-L	.
.	.	8c 8cc	.	.
8G-J 8e-	.	.	8cJ 8g-	.
.	.	16cJk 16cc	.	.
=4	=4	=4	=4	=4
8G-L 8e-	2.BB-	8.cc-XL	8c-XL 8g-	.
8G-J 8e-	.	.	8c-J	.
.	.	16g-Jk	.	.
8G-L 8e-	.	4.cc-	8c-L 8g-	.
8G-J 8e-	.	.	8c-J 8g-	.
8G-L 8e-	.	.	8c-L 8g-	.
8G-J 8e-	.	8b-	8B-J 8g-	.
=5	=5	=5	=5	=5
4d-	8BB-L 8G-	8.anL	8AnL 8e-	.
.	8BB-J 8G-	.	8AJ 8e-	.
.	.	16aJk	.	.
4c-X	8BB-L 8G-	4a	8AL 8e-	.
.	8BB-J 8G-	.	8AJ 8e-	.
4B-	8BB-L 8G-	4b-	8B-L 8e-	.
.	8BB-J 8G-	.	8B-J 8e-	.
=6	=6	=6	=6	=6
8.G-L	8BB-L 8B-	8.e-L	8B-L	.
.	8BB-J 8B-	.	8B-J	.
16FJk	.	16fJk	.	.
2E-	8BB-L 8B-	2g-	8G-L 8e-	.
.	8BB-J 8B-	.	8G-J 8e-	.
.	8BB-L 8B-	.	8G-L 8e-	.
.	8BB-J 8B-	.	8G-J 8e-	.
=7	=7	=7	=7	=7
8BB-L 8B-	4BB-	16G-KL 16g-	8d-L	.
.	.	8F 8f	.	.
8BB-J 8B-	.	.	8FJ 8d-	.
.	.	16FJk 16f	.	.
8BB-L 8B-	4EE-	16A-KL 16a-	8d-L	.
.	.	8G- 8g-	.	.
8BB-J 8B-	.	.	8G-J 8d-	.
.	.	16G-Jk 16g-	.	.
8CL 8B-	4GG-	16FKL 16f	8cL	.
.	.	8En 8en	.	.
8CJ 8B-	.	.	8EJ 8c	.
.	.	16EJk 16e	.	.
=8	=8	=8	=8	=8
8CL 8B-	4FF	8.fL	8FL 8c	.
8CJ 8B-	.	.	8cJ	.
.	.	16fJk	.	.
8FL 8An	4rEE	4f	4c	.
8FJ 8f	.	.	.	.
8FL 8f	4rEE	4raa	4rc	.
8FJ 8f	.	.	.	.
=9	=9	=9	=9	=9
.	[8qBB-\	.	.	.
8FL 8f	2BB-]	8.dd-L	8d-L 8b-	.
8FJ 8f	.	.	8d-J 8b-	.
.	.	16dd-Jk	.	.
8FL 8f	.	4dd-	8d-L 8b-	.
8FJ 8f	.	.	8d-J 8b-	.
.	[8qBB-\	.	.	.
8G-L 8g-	4BB-]	16ffLL	8e-L 8b-	.
.	.	16dd-	.	.
8G-J 8g-	.	24ff	8e-J 8b-	.
.	.	24ee-	.	.
.	.	24b-JJ	.	.
=10	=10	=10	=10	=10
.	[8qBB-\	.	.	.
8FL 8f	4BB-]	[8b-L	8d-L	.
8B-J 8f	.	24b-L]	8d-J	.
.	.	24bn	.	.
.	.	24ccJJ	.	.
8B-L 8g-	2E-	2dd-	8d-L 8b-X	.
8B-J 8g-	.	.	8d-J 8b-	.
8B-L 8g-	.	.	8d-L 8b-	.
8B-J 8g-	.	.	8d-J 8b-	.
=11	=11	=11	=11	=11
2.ryy	8EnL 8B- 8g-	16d-KL 16dd-	8b-L	.
.	.	8c 8cc	.	.
.	8EEnJ 8D-	.	8cJ 8g-	.
.	.	16cJk 16cc	.	.
.	8D-L 8G-	16cKL 16cc	8g-L	.
.	.	8B- 8b-	.	.
.	8EJ 8d-	.	8B-J 8g-	.
.	.	16B-Jk 16b-	.	.
.	8FL 8d-	16B-KL 16b-	8fL	.
.	.	8An 8an	.	.
.	8FFJ 8D-	.	8AJ 8f	.
.	.	16B-Jk 16b-	.	.
=12	=12	=12	=12	=12
2.ryy	8G-L 8d-	16d-KL 16dd-	8enL	.
.	.	8c 8cc	.	.
.	8GG-J 8En	.	8cJ 8e	.
.	.	16cJk 16cc	.	.
.	8EL 8d-	16cKL 16cc	8eL	.
.	.	8B- 8b-	.	.
.	8D-J 8B-	.	8B-J 8e	.
.	.	16B-Jk 16b-	.	.
.	8E-XL 8d-	16B-LL 16b-	8e-XL	.
.	.	16An 16an	.	.
.	8GGnJ 8E-	16c 16cc	8e-J	.
.	.	16B-JJ 16b-	.	.
=13	=13	=13	=13	=13
4F	12FL	16B-KL 16b-	8d-L	.
.	.	8B-- 8b--	.	.
.	12AA-	.	.	.
.	.	.	8B--J 8d-	.
.	12AAA-J	.	.	.
.	.	16B--Jk 16b--	.	.
4F	12FL	16B--KL 16b--	8d-L	.
.	.	8A- 8a-	.	.
.	12AA-	.	.	.
.	.	.	8A-J 8d-	.
.	12AAA-J	.	.	.
.	.	16A-Jk 16a-	.	.
4F-X	12F-L	16A-KL 16a-	8d-L	.
.	.	8Gn 8gn	.	.
.	12AA-	.	.	.
.	.	.	8GJ 8d-	.
.	12AAA-J	.	.	.
.	.	16GJk 16g	.	.
=14	=14	=14	=14	=14
4E-	12E-L	16GnKL 16gn	8d-L	.
.	.	8G-X 8g-X	.	.
.	12AA-	.	.	.
.	.	.	8G-J 8d-	.
.	12AAA-J	.	.	.
.	.	16G-Jk 16g-	.	.
[4A-	8rEE	16G-KL 16g-	8cL	.
.	.	8F 8f	.	.
.	8AA-	.	8FJ 8c	.
.	.	16FJk 16f	.	.
4A-]	8AA-L	16FKL 16f	8cL	.
.	.	8En 8en	.	.
.	8AA-J	.	8cJ	.
.	.	16A-Jk	.	.
=15	=15	=15	=15	=15
16rc	8DD- 8AA-	[4f	8G-L 8c	.
[16A-	.	.	.	.
8A-_	24CLL	.	8G-J 8c	.
.	24.BB-	.	.	.
.	48AA-JJk	.	.	.
2A-]	4.AA-	16fLL]	8G-L 8c	.
.	.	16g-	.	.
.	.	16en	8G-J 8c	.
.	.	16fJJ	.	.
.	.	8a-L	8G-L 8c	.
.	8AA-	8A-J	8G-J	.
=16	=16	=16	=16	=16
2.ryy	4DD- 4AA-	24d-LL	8FL 8A-	.
.	.	24e-	.	.
.	.	24d-	.	.
.	.	24c	8FJ 8A-	.
.	.	24d-	.	.
.	.	24e-JJ	.	.
.	16AAAn 16AAn	16en	16Gn 16c#X 16e	.
.	16AALL	16aanLL	16cc#XLL	.
.	16En	16ggn	16bn	.
.	16c#XJJ	16ff#XJJ	16gnJJ	.
.	8gn	16ff#LL	8an	.
.	.	16eenJJ	.	.
.	8BB--	16e-XLL	8G 8d-	.
.	.	16enJJ	.	.
=17	=17	=17	=17	=17
16rc	8AAA- 8AA-	[4f	8A-L 8c	.
[16A-	.	.	.	.
8A-_	24CLL	.	8G-XJ 8c	.
.	24.BB-	.	.	.
.	48AA-JJk	.	.	.
2A-]	4.AA-	16fLL]	8G-L 8c	.
.	.	16g-	.	.
.	.	16en	8G-J 8c	.
.	.	16fJJ	.	.
.	.	8a-L	8G-L 8c	.
.	8AA-	8A-J	8G-J	.
=18	=18	=18	=18	=18
2.ryy	4DD- 4AA-	24d-LL	8FL 8A-	.
.	.	24e-	.	.
.	.	24d-	.	.
.	.	24c	8FJ 8A-	.
.	.	24d-	.	.
.	.	24e-JJ	.	.
.	16AAAn 16AAn	16en	16Gn 16c#X	.
.	16AALL	16bbnLL	16cc#XLL	.
.	16En	16ggn	16bn	.
.	16c#XJJ	16ff#XJJ	16gnJJ	.
.	8gn	16ff#LL	8b	.
.	.	16eenJJ	.	.
.	8AA	16eLL	8An 8c#	.
.	.	16e#XJJ	.	.
*v	*v	*	*	*
*	*v	*v	*
=19||	=19||	=19||
*k[f#c#g#d#]	*k[f#c#g#d#]	*
*	*^	*
8.DnL	[4f#	8AL 8dn	.
.	.	8AJ 8d	.
16DJk	.	.	.
4Cn	16f#LL]	8AL 8e	.
.	16gn	.	.
.	16e#X	8AJ 8en	.
.	16f#XJJ	.	.
4BB	8bL	8AL 8d#X	.
.	8BJ	8AJ	.
=20	=20	=20	=20
4E	24eLL	8G#L 8B	.
.	24f#	.	.
.	24e	.	.
.	24d#	8G#J 8B	.
.	24e	.	.
.	24f#JJ	.	.
8DnL	2g#	8BL 8f#	.
8G#J	.	8BJ 8f#	.
8DL	.	8BL 8e#X	.
8C#J	.	8BJ 8e#	.
*	*v	*v	*
=21||	=21||	=21||
*k[b-e-a-d-g-]	*k[b-e-a-d-g-]	*
*	*^	*
8.G-L	[4b-	8d-L 8g-	.
.	.	8d-J 8g-	.
16G-Jk	.	.	.
4F-X	16b-LL]	8d-L 8a-	.
.	16cc-X	.	.
.	16an	8d-J 8a-X	.
.	16a-XJJ	.	.
4E-	8gnL 8ee-	8d-L	.
.	8e-J	8d-J	.
=22	=22	=22	=22
4A-	24a-LL	8cL 8e-	.
.	24b-	.	.
.	24a-	.	.
.	24gn	8cJ 8e-	.
.	24a-	.	.
.	24b-JJ	.	.
4Gn	2cc	8cL 8en 8b-	.
.	.	8c 8e 8b-	.
8G-XL	.	8c 8e 8b-	.
8GG-J 8C	.	8B-J 8e	.
=23	=23	=23	=23
*^	*	*	*
8FF 8C	16rc	[4cc	8AnL 8f	.
.	[16c	.	.	.
24FLL	8c_	.	8AJ 8f	.
24.Dn	.	.	.	.
48CJJk	.	.	.	.
4C	4c]	16ccLL]	8AL 8f	.
.	.	16ddn	.	.
.	.	16bn	8AJ 8f	.
.	.	16ccJJ	.	.
4An 4c 4an	4ryy	16ffLL	4f	.
.	.	16dd	.	.
.	.	24cc	.	.
.	.	24f	.	.
.	.	24AJJ	.	.
*v	*v	*	*	*
=24	=24	=24	=24
16FFLL	4cc	8B-L 8e-	.
16C	.	.	.
24G-	.	8B-J 8e-	.
24en	.	.	.
24b-JJ	.	.	.
8b-	8raa	8rc	.
8r	8cc	8e- 8b-	.
4G-	8dd-L	8e-L 8b-	.
.	8ccJ	8e-J 8b-	.
=25	=25	=25	=25
*^	*	*	*
8FF 8C	16rc	[4cc	8AnL 8f	.
.	[16c	.	.	.
24FLL	8c_	.	8AJ 8f	.
24.Dn	.	.	.	.
48CJJk	.	.	.	.
4C	4c]	16ccLL]	8AL 8f	.
.	.	16ddn	.	.
.	.	16bn	8AJ 8f	.
.	.	16ccJJ	.	.
4An 4c 4an	4ryy	16ffLL	4f	.
.	.	16dd	.	.
.	.	24cc	.	.
.	.	24f	.	.
.	.	24AJJ	.	.
*v	*v	*	*	*
=26	=26	=26	=26
16FFLL	4cc	8B-L 8en	.
16C	.	.	.
24G-	.	8B-J 8e	.
24en	.	.	.
24b-JJ	.	.	.
4b-	8raa	8rc	.
.	8e-X 8b- 8cc	8ryy	.
4G-	8e-L 8b- 8dd-	4ryy	.
.	8e-J 8b- 8cc	.	.
=27	=27	=27	=27
16FFLL	4cc	8B-L 8e-X	.
16C	.	.	.
24G-	.	8B-J 8e-	.
24e-X	.	.	.
24b-JJ	.	.	.
4b-	8raa	4ryy	.
.	8e- 8b- 8cc	.	.
4G-	8e-L 8b- 8dd-	4ryy	.
.	8e-J 8b- 8cc	.	.
*	*v	*v	*
=28	=28	=28
4F	8e-L 8an 8gg-	.
.	8fJ 8a 8ff	.
4c	8g-L 8b- 8een	.
.	8g-J 8b- 8ee-X	.
12d-L	8g-L 8b- 8dd-	.
12e-	.	.
.	8g-J 8b- 8cc	.
12enJ	.	.
=29	=29	=29
*^	*^	*
16fLL	4f	8.dd-L	8d-L 8b-	.
16B-	.	.	.	.
16F	.	.	8d-J 8b-	.
16BB-JJ	.	16dd-Jk	.	.
16a-LL	4a-	4dd-	8d-L 8b-	.
16B-	.	.	.	.
16F	.	.	8d-J 8b-	.
16BB-JJ	.	.	.	.
16g-LL	4g-	16ffLL	8d-L 8b-	.
16B-	.	16dd-	.	.
16E-	.	24ff	8d-J 8b-	.
.	.	24ee-	.	.
16BB-JJ	.	.	.	.
.	.	24b-JJ	.	.
=30	=30	=30	=30	=30
16fLL	4f	[8b-L	8d-L 8b-	.
16B-	.	.	.	.
16F	.	24b-L]	8d-J 8b-	.
.	.	24bn	.	.
16BB-JJ	.	.	.	.
.	.	24ccJJ	.	.
16FFLL	4ryy	16ee-LL	8d-L 8b-X	.
16BBB- 16BB-	.	[16dd-J	.	.
16FF	.	8dd-J_	8d-J 8b-	.
16BB-JJ	.	.	.	.
16FLL	4ryy	4dd-]	8d-L 8b-	.
16BB-	.	.	.	.
16F	.	.	8d-J 8b-	.
16fJJ	.	.	.	.
*v	*v	*	*	*
=31	=31	=31	=31
16g-LL	16e-KL 16ee-	8b-L	.
16B-	8dn 8ddn	.	.
16G-	.	8dJ 8b-	.
16BB-JJ	16dJk 16dd	.	.
16B-LL	16dKL 16dd	8g-L	.
16E-	8d-X 8dd-X	.	.
16BB-	.	8d-J 8g-	.
16EE-JJ	16d-Jk 16dd-	.	.
16G-LL	16d-KL 16dd-	8e-L	.
16BB-	8c 8cc	.	.
16EE-	.	8cJ 8e-	.
[16BBB-JJ	16cJk 16cc	.	.
=32	=32	=32	=32
16BBB-LL] 16GG-	8.cc-XL	8c-XL 8e-	.
16E-	.	.	.
16GG-	.	8c-J 8e-	.
16E-JJ	16g-Jk	.	.
16c-XLL	4.cc-	8e-L	.
16E-	.	.	.
16c-	.	8e-J	.
16g-JJ	.	.	.
4g-	.	8e-L	.
.	8b-	8B-J 8e-	.
=33	=33	=33	=33
*^	*	*	*
16d-LL	4d-	8.anL	8AnL 8e-	.
16E-	.	.	.	.
16GG-	.	.	8AJ 8e-	.
16BBB-JJ	.	16aJk	.	.
16c-XLL	4c-	4a	8AL 8e-	.
16E-	.	.	.	.
16GG-	.	.	8AJ 8e-	.
16BBB-JJ	.	.	.	.
16B-LL	4B-	4b-	8B-L 8e-	.
16E-	.	.	.	.
16GG-	.	.	8B-J 8e-	.
16BBB-JJ	.	.	.	.
=34	=34	=34	=34	=34
16G-LL	8.G-L	8.e-L	8B-L	.
16BB-	.	.	.	.
16BBB-	.	.	8B-J	.
16FJJ	16FJk	16fJk	.	.
16E-LL	4ryy	2g-	8G-L 8e-	.
16BB-	.	.	.	.
16EE-	.	.	8G-J 8e-	.
16BBB-JJ	.	.	.	.
16EE-LL	4ryy	.	8G-L 8e-	.
16BB-	.	.	.	.
16E-	.	.	8G-J 8e-	.
16B-JJ	.	.	.	.
*v	*v	*	*	*
=35	=35	=35	=35
12B-L	16G-KL 16g-	8d-L	.
.	8F 8f	.	.
12BB-	.	.	.
.	.	8FJ 8d-	.
12BBB-J	.	.	.
.	16FJk 16f	.	.
12B-L	16A-KL 16a-	8d-L	.
.	8G- 8g-	.	.
12BB-	.	.	.
.	.	8G-J 8d-	.
12EE-J	.	.	.
.	16G-Jk 16g-	.	.
12B-L	16FKL 16f	8cL	.
.	8En 8en	.	.
12C	.	.	.
.	.	8EJ 8c	.
12GG-J	.	.	.
.	16EJk 16e	.	.
=36	=36	=36	=36
16B-LL	[4f	8FL 8c	.
16C	.	.	.
16FF	.	8cJ	.
16CJJ	.	.	.
16AnLL	8f]	4rc	.
16F	.	.	.
16Bn	8raa	.	.
16cJJ	.	.	.
16e-LL	4raa	4rc	.
16c	.	.	.
16d-	.	.	.
16enJJ	.	.	.
=37	=37	=37	=37
*^	*	*	*
16fLL	4f	8.dd-L	8d-L 8b-	.
16B-	.	.	.	.
16F	.	.	8d-J 8b-	.
16BB-JJ	.	16dd-Jk	.	.
16a-LL	4a-	4dd-	8d-L 8b-	.
16B-	.	.	.	.
16F	.	.	8d-J 8b-	.
16BB-JJ	.	.	.	.
16g-LL	4g-	16ffLL	8d-L 8b-	.
16B-	.	16dd-	.	.
16E-	.	24ff	8d-J 8b-	.
.	.	24ee-	.	.
16BB-JJ	.	.	.	.
.	.	24b-JJ	.	.
=38	=38	=38	=38	=38
16fLL	4f	[8b-L	8d-L 8b-	.
16B-	.	.	.	.
16F	.	24b-L]	8d-J 8b-	.
.	.	24bn	.	.
16BB-JJ	.	.	.	.
.	.	24ccJJ	.	.
16g-LL	4g-	2dd-	8d-L 8b-X	.
16B-	.	.	.	.
16E-	.	.	8d-J 8b-	.
16G-JJ	.	.	.	.
16BB-LL	4ryy	.	8d-L 8b-	.
16EE-	.	.	.	.
16BB-	.	.	8d-J 8b-	.
16B-JJ	.	.	.	.
*v	*v	*	*	*
=39	=39	=39	=39
16g-LL	16d-KL 16dd-	8b-L	.
16d-	8c 8cc	.	.
16En	.	8cJ 8g-	.
16G-JJ	16cJk 16cc	.	.
16D-LL	16cKL 16cc	8g-L	.
16EEn	8B- 8b-	.	.
16D-	.	8B-J 8g-	.
16d-JJ	16B-Jk 16b-	.	.
16D-LL	16B-KL 16b-	8fL	.
16FF	8An 8an	.	.
16D-	.	8AJ 8f	.
16d-JJ	16B-Jk 16b-	.	.
=40	=40	=40	=40
16enLL	16d-KL 16dd-	8enL	.
16d-	8c 8cc	.	.
16G-	.	8cJ 8e	.
16d-JJ	16cJk 16cc	.	.
16D-LL	16cKL 16cc	8eL	.
16GG-	8B- 8b-	.	.
16D-	.	8B-J 8e	.
16d-JJ	16B-Jk 16b-	.	.
16G-LL	16B-LL 16b-	8eL	.
16D-	16An 16an	.	.
16GG-	16c 16cc	8eJ	.
16D-JJ	16B-JJ 16b-	.	.
=41	=41	=41	=41
16FFLL	4b-	8B-L 8d-	.
16D-	.	.	.
16G-	.	8B-J 8d-	.
16FJJ	.	.	.
16CLL	4b-	8B-L 8f	.
16D-	.	.	.
16d-	.	8B-J 8f	.
16D-JJ	.	.	.
16FLL	4b-	8fL	.
16c	.	.	.
16d-	.	8fJ	.
16cJJ	.	.	.
=42	=42	=42	=42
*^	*	*	*
2.F	8d-L	8.b-L	8fL	.
.	8fJ	.	8d-J	.
.	.	16ccJk	.	.
.	8fL	2dd-	8d-L 8b-	.
.	8fJ	.	8d-J 8b-	.
.	8fL	.	8d-L 8b-	.
.	8fJ	.	8d-J 8b-	.
=43	=43	=43	=43	=43
16FF-XLL	4ryy	4g-	8B-L	.
16D-	.	.	.	.
16G-	.	.	8B-J	.
16D-JJ	.	.	.	.
16CLL	4ryy	4g-	8B-L	.
16D-	.	.	.	.
16d-	.	.	8B-J	.
16D-JJ	.	.	.	.
16F-XLL	4F-	4g-	8B-L	.
16c	.	.	.	.
16d-	.	.	8B-J	.
16cJJ	.	.	.	.
=44	=44	=44	=44	=44
2.F-X	8d-L	8.g-L	8B-L	.
.	8d-J	.	8B-J	.
.	.	16a-Jk	.	.
.	8d-L	2b-	8B-L 8g-	.
.	8d-J	.	8B-J 8g-	.
.	8d-L	.	8B-L 8g-	.
.	8d-J	.	8B-J 8g-	.
*v	*v	*	*	*
=45	=45	=45	=45
16E- 16e-	8.cc-XL	4c-X 4g-	.
16EE-LL	.	.	.
16C-X	.	.	.
16G-JJ	16dd-Jk	.	.
4g-	4ee-	4rc	.
4r	4raa	4rc	.
*	*v	*v	*
=46	=46	=46
2.r	2.r	.
=47	=47	=47
*	*^	*
4FF	4f	8FL 8An 8e-	.
.	.	8FJ 8A 8e-	.
4CC 4FF	4f	8FL 8A 8e-	.
.	.	8FJ 8A 8e-	.
4CC-X 4FF	4f	8FL 8A 8e-	.
.	.	8FJ 8A 8e-	.
=48	=48	=48	=48
8.BBB- 8.FF	4f	8FL 8B- 8dn	.
.	.	8FJ 8B- 8d	.
16F	.	.	.
2F	4raa	8rc	.
.	.	8B- 8d	.
.	4raa	8B-L 8d	.
.	.	8B-J 8d	.
=49	=49	=49	=49
4CC-X 4FF	4f	8FL 8An 8e-	.
.	.	8FJ 8A 8e-	.
4CC- 4FF	4f	8FL 8A 8e-	.
.	.	8FJ 8A 8e-	.
4CC- 4FF	4f	4F 4A 4e-	.
=50	=50	=50	=50
8.BBB- 8.FF	4f	8FL 8B- 8dn	.
.	.	8FJ 8B- 8d	.
16F	.	.	.
[2F	4raa	8rc	.
.	.	8B- 8d	.
.	4raa	8B-L 8d	.
.	.	16B-Jk 16d	.
.	.	16rc	.
*	*v	*v	*
=51	=51	=51
*^	*	*
8.F]	4c-X 4e- 4f 4an	4ff 4aan 4fff	.
16F	.	.	.
[2F	4re	4r	.
.	4re	4r	.
=52	=52	=52	=52
2.F]	4B- 4dn 4f 4b-	4ff 4bb- 4fff	.
.	4re	4r	.
.	4re	4r	.
*v	*v	*	*
=53	=53	=53
4BBB- 4FF	2.r	.
4r	.	.
4r	.	.
=54	=54	=54
4BBB- 4FF	2.r	.
4r	.	.
4r	.	.
==	==	==
*-	*-	*-
!!!system-decoration: {(*)}
!!!ENC: Bryan Jacob Bell
!!!END: November 2021 to April 2022
!!!PED: Konstantin Igumnov and Yakov Milstein
!!!PTL: A.N. Skryabin: Polnoe sobranie sochinenii dlia fortepiano (Muzgiz)
